!!!!SEGMENT: pl-kk--kk-i-389--006-003_anonim--missa-no-6-gloria.krn
!!!cenid: 17xx:2493
!!!COM: Anonim
!!!COM-rismID: pe30004985
!!!CDT:
!!!CNT:
!!!OPR: [Missa] No. 6.
!!!OTL: Gloria
!!!OMV: 003
!!!PDT:
!!!AGN: Sacred; Mass
!!!YEC: Copyright 2022 Narodowy Instytut Fryderyka Chopina (https://polishscores.org)
!!!YEM: License CC-BY-4.0 (https://creativecommons.org/licenses/by/4.0)
!!!SMS-siglum: PL-Kk
!!!SMS-shelfmark: Kk.I.389
!!!SMS-variant:
!!!SMS-altvar:
!!!SMS-shelfwork: 006-003 M
!!!NIFC-rismSourceID: 1001146182
!!!NIFC-rismChildID: 1001147228
!!!NIFC-islandoraID: pl-kk:6976
!!!URL-pdf-islandora: https://repozytorium.nifc.pl/islandora/object/pl-kk%3A6976/datastream/PDF/view
!!!URL-scan: https://polish.musicsources.pl/pl/lokalizacje/galeria/rekopisy/5999/1 @EN{Scan on Polish Music Sources Website} @PL{Skany w portalu Dziedzictwo Muzyki Polskiej w otwartym dostępie}
!!!IIIF:
!!!ONB-nifc: UWAGA: S – skan 10-12, A – 29-31 , T – 48-49 , B – 67-69 . Części Mszy: Rorate, Kyrie, Gloria, Graduale, Sanctus, Benedictus, Agnus, Dona.
!!!AIN: 1 alto 1 bass 1 soprn 1 tenor
!!!key: d
**kern	**text	**kern	**text	**text	**kern	**text	**kern	**text
*part4	*part4	*part3	*part3	*part3	*part2	*part2	*part1	*part1
*staff4	*staff4	*staff3	*staff3	*staff3	*staff2	*staff2	*staff1	*staff1
*I"Basso.	*	*I"Tenore.	*	*	*I"Alto.	*	*I"Soprano.	*
*I'[B]	*	*I'[T]	*	*	*I'[A]	*	*I'[S]	*
*ICvox	*	*ICvox	*	*	*ICvox	*	*ICvox	*
*Ibass	*	*Itenor	*	*	*Ialto	*	*Isoprn	*
*clefF4	*	*clefC4	*	*	*clefC3	*	*clefC1	*
*k[b-]	*	*k[b-]	*	*	*k[b-]	*	*k[b-]	*
*d:	*	*d:	*	*	*d:	*	*d:	*
*M2/2	*	*M2/2	*	*	*M2/2	*	*M2/2	*
*met(C.|)	*	*met(C.|)	*	*	*met(C.|)	*	*met(C.|)	*
=1	=1	=1	=1	=1	=1	=1	=1	=1
!!LO:TX:t=P:problem: all\right	!	!	!	!	!	!	!
4.D\	Et	4.A\	Et	.	4f\	Et	4.dd\	Et
.	.	.	.	.	4e\	in	.	.
8E\	in	8A\	in	.	.	.	8cc#X\	in
4F\	ter-	4A\	ter-	.	4f\	ter-	4dd\	ter-
4G\	-ra	4B-\	-ra	.	4e\	-ra	4cc#\	-ra
=2	=2	=2	=2	=2	=2	=2	=2	=2
4A\	pax	4A\	pax	.	4f\	pax	4dd\	pax
4A\	ho-	4A\	ho-	.	4e\	ho-	4cc#X\	ho-
4c#X\	-mi-	4A\	-mi-	.	4e\	-mi-	4ee\	-mi-
8A\	-ni-	8A\	-ni-	.	8e\	-ni-	8cc#\	-ni-
8A\	-bus	8A\	-bus	.	8e\	-bus	8cc#\	-bus
=3	=3	=3	=3	=3	=3	=3	=3	=3
4d\	bo-	4A\	bo-	.	4f\	bo-	4dd\	bo-
!LO:v:l:s=-nae	!	!LO:v:l:s=-nae	!	!	!LO:v:l:s=-nae	!	!LO:v:l:s=-nae	!
4B-\	-ne	4B-\	-ne	.	4f\	-ne	4dd\	-ne
4A\	vo-	4A\	vo-	.	4e\	vo-	4cc#X\	vo-
4G#X\	-lun-	4Bn\	-lun-	.	4e\	-lun-	4dd\	-lun-
=4	=4	=4	=4	=4	=4	=4	=4	=4
4A\	-ta-	4A\	-ta-	.	4e\	-ta-	4cc#X\	-ta-
4AA/	-tis	4A\	-tis	.	4e\	-tis	4cc#\	-tis
4r	.	4r	.	.	4r	.	4r	.
4A\	Lau-	4A\	Lau-	.	4e\	Lau-	4cc#\	Lau-
=5	=5	=5	=5	=5	=5	=5	=5	=5
4A\	-da-	4c#X\	-da-	.	4g\	-da-	4ee\	-da-
4E\	-mus	4c#\	-mus	.	4g\	-mus	4ee\	-mus
!	!	!	!	!	!	!	!LO:LB:g=original	!
4C#X/	te	4A\	te	.	4g\	te	4ee\	te,
8AA/	be-	8A\	be-	.	8e\	be-	8cc#X\	be-
8AA/	-ne-	8A\	-ne-	.	8e\	-ne-	8cc#\	-ne-
!LO:LB:g=original	!	!LO:LB:g=original	!	!	!LO:LB:g=original	!	!	!
=6	=6	=6	=6	=6	=6	=6	=6	=6
4AA/	-di-	4c#X\	-di-	.	4e\	-di-	4cc#X\	-di-
8C#X/	-ci-	8A\	-ci-	.	8g\	-ci-	8ee\	-ci-
8AA/	-mus	8c#\	-mus	.	8e\	-mus	8cc#\	-mus
4D\	te,	4d\	te	.	4f\	te,	4a\	te,
8F\	a-	8d\	a-	.	8f\	a-	8a\	a-
8D\	-do-	8d\	-do-	.	8f\	-do-	8a\	-do-
=7	=7	=7	=7	=7	=7	=7	=7	=7
4G\	-ra-	4B-\	-ra-	.	4d\	-ra-	4dd\	-ra-
4F\	-mus	4A\	-mus	.	4f\	-mus	4dd\	-mus
4E\	te	4G/	te	.	4g\	te	4cc#X\	te
4D\	glo-	4A\	glo-	.	4f\	glo-	4dd\	glo-
=8	=8	=8	=8	=8	=8	=8	=8	=8
4C#X/	-ri-	4B-\	-ri-	.	4g\	-ri-	4ee\	-ri-
4D/	-fi-	4A\	-fi-	.	4f\	-fi-	4dd\	-fi-
4A\	-ca-	4A\	-ca-	.	4f\	-ca-	4dd\	-ca-
4AA/	-mus	4A\	-mus	.	4e\	-mus	4cc#X\	-mus
=9	=9	=9	=9	=9	=9	=9	=9	=9
*2\right	*	*2\right	*	*	*2\right	*	*2\right	*
2D\	te.	2A\	te.	.	2f\	te.	2dd\	te,
!LO:TX:a:i:t=Volti Subitto.	!	!LO:TX:a:i:t=Volti Subitto.	!	!	!LO:TX:a:i:t=Volti Subitto.	!	!	!
2r	.	2r	.	.	2r	.	2r	.
!LO:PB:g=original	!	!LO:PB:g=original	!	!	!LO:PB:g=original	!	!	!
=10	=10	=10	=10	=10	=10	=10	=10	=10
4.F\	Gra-	4.A\	Gra-	.	4.a\	Gra-	4.ccn\	Gra-
8G\	-ti-	8B-\	-ti-	.	8g\	-ti-	8b-X\	-ti-
2A\	-as	2c\	-as	.	2f\	-as	2a\	-as
=11	=11	=11	=11	=11	=11	=11	=11	=11
4.G\	a-	4.c\	a-	.	4.e\	a-	4.b-X\	a-
8F\	-gi-	8c\	-gi-	.	8f\	-gi-	8a\	-gi-
2E\	-mus	2c\	-mus	.	2g\	-mus	2g\	-mus
!	!	!	!	!	!	!	!LO:LB:g=original	!
=12	=12	=12	=12	=12	=12	=12	=12	=12
4F\	a-	4A\	a-	.	4a\	a-	4cc\	a-
4G\	.	4B-\	.	.	4g\	.	4b-X\	.
4A\	-gi-	4c\	-gi-	.	4f\	-gi-	4a\	-gi-
4B-\	-mus	4d\	-mus	.	4g\	-mus	4g\	-mus
=13	=13	=13	=13	=13	=13	=13	=13	=13
2c\	ti-	2c\	ti-	.	2f\	ti-	2a\	ti-
2C/	-bi	2c\	-bi	.	2e\	-bi	2g\	-bi
=14	=14	=14	=14	=14	=14	=14	=14	=14
2C/	pro-	2c\	pro-	.	2e\	pro-	2g\	pro-
2B-X\	-pter	2e\	-pter	.	2g\	-pter	2cc\	-pter
=15	=15	=15	=15	=15	=15	=15	=15	=15
4A\	ma-	4f\	ma-	.	4a\	ma-	4cc\	ma-
4E\	-gnam	4c\	-gnam	.	4g\	-gnam	4cc\	-gnam
4F\	glo-	4c\	glo-	.	4a\	glo-	4cc\	glo-
8BB-/	-ri-	4c\	-riam	.	8g\	-ri-	8b-\	-ri-
8AA/	-am	.	.	.	8f\	-am	8a\	-am
=16	=16	=16	=16	=16	=16	=16	=16	=16
1C	tu-	1c	tu-	.	2f\	tu-	2a\	tu-
.	.	.	.	.	2e\	.	2g\	.
=17	=17	=17	=17	=17	=17	=17	=17	=17
2F\	-am	2c\	-am	.	2f\	-am,	2a\	-am,
!LO:LB:g=original	!	!LO:LB:g=original	!	!	!LO:LB:g=original	!	!	!
8B-\L	Do-	4B-\	Do-	.	4f\	Do-	4dd\	Do-
8F\J	.	.	.	.	.	.	.	.
8D\	-mi-	8B-\	-mi-	.	8f\	-mi-	8dd\	-mi-
8BB-/	-ne	8B-\	-ne	.	8f\	-ne	8dd\	-ne
=18	=18	=18	=18	=18	=18	=18	=18	=18
4F\	De-	4A\	De-	.	4f\	De-	4cc\	De-
4F\	-us	4A\	-us	.	4f\	-us	4cc\	-us
8c\L	Rex	4A\	Rex	.	4f\	Rex	4ee-X\	Rex
8B-\J	.	.	.	.	.	.	.	.
!LO:v:l:s=cae-	!	!LO:v:l:s=cae-	!	!	!LO:v:l:s=cae-	!	!LO:v:l:s=cae-	!
8A\L	ce-	4c\	ce-	.	4f\	ce-	4ee-\	ce-
8F\J	.	.	.	.	.	.	.	.
!	!	!	!	!	!	!	!LO:LB:g=original	!
=19	=19	=19	=19	=19	=19	=19	=19	=19
4B-\	-le-	4B-\	-le-	.	4f\	-le-	4dd\	-le-
4BB-/	-stis	4B-\	-stis	.	4f\	-stis	4dd\	-stis
4B-\	De-	4F#X/	De-	.	4d\	De-	4cc\	De-
4F#X\	-us	4A\	-us	.	4d\	-us	4cc\	-us
=20	=20	=20	=20	=20	=20	=20	=20	=20
8G\L	Pa-	8B-\L	Pa-	.	8g\L	Pa-	8b-\L	Pa-
8A\J	.	8c\J	.	.	8f#X\J	.	8a\J	.
8B-\	-ter	8d\	-ter	.	8g\	-ter	8b-\	-ter
8c\	o-	8e-X\	o-	.	8f#\	o-	8a\	o-
4d\	-mni-	4d\	-mni-	.	4g\	-mni-	4b-\	-mni-
4D/	-po-	4d\	-po-	.	4f#\	-po-	4a\	-po-
=21	=21	=21	=21	=21	=21	=21	=21	=21
2G\	-tens	2d\	-tens	.	2g\	-tens,	2b-\	-tens,
8F\L	Do-	4Bn\	Do-	.	4d\	Do-	4a-X\	Do-
8A-X\J	.	.	.	.	.	.	.	.
8G\	-mi-	8B\	-mi-	.	8d\	-mi-	8a-\	-mi-
8F\	-ne	8B\	-ne	.	8d\	-ne	8a-\	-ne
!LO:LB:g=original	!	!	!	!	!	!	!	!
=22	=22	=22	=22	=22	=22	=22	=22	=22
8E-X\L	Fi-	8c\L	Fi-	.	8e-X\L	Fi-	4g\	Fi-
8D\J	.	8d\J	.	.	8f\J	.	.	.
4C/	-li	4e-X\	-li	.	4g\	-li	4g\	-li
8E-\L	u-	4c\	u-	.	4e-\	u-	4an\	u-
8G\J	.	.	.	.	.	.	.	.
8F\L	-ni-	4c\	-ni-	.	4e-\	-ni-	4a\	-ni-
8E-\J	.	.	.	.	.	.	.	.
!	!	!LO:LB:g=original	!	!	!LO:LB:g=original	!	!	!
=23	=23	=23	=23	=23	=23	=23	=23	=23
8D/L	-ge-	8B-X\	-ge-	.	8d\	-ge-	8f/	-ge-
8C/J	-ni-	8c\	-ni-	.	8e-X\	-ni-	8f/	-ni-
4BB-/	-te	4d\	-te	.	4f\	-te	4f/	-te
4A-X\	Je-	4d\	Je-	.	4f\	Je-	4b-\	Je-
4A-\	-su	4d\	-su	.	4f\	-su	4b-\	-su
!	!	!	!	!	!	!	!LO:LB:g=original	!
=24	=24	=24	=24	=24	=24	=24	=24	=24
4G\	Je-	4e-X\	Je-	.	4e-X\	Je-	4b-\	Je-
!	!	!	!	!	!	!	!LO:SIC:v:o=4a\	!
4A-X\	-su	4c\	-su	.	4f\	-su	4a-	-su
4B-\	Chri-	4e-\	Chri-	.	4g\	Chri-	2b-\	Chri-
4BB-/	.	4d\	.	.	4f\	.	.	.
=25	=25	=25	=25	=25	=25	=25	=25	=25
2E-X\	-ste	2e-X\	-ste,	.	2g\	-ste,	2b-\	-ste,
!	!	!	!	!	!	!	!LO:SIC:v:o=4ee\	!
8E-\L	Do-	4B-\	Do-	.	4g\	Do-	4ee-\	Do-
8G\J	.	.	.	.	.	.	.	.
!	!	!	!	!	!	!	!LO:SIC:v:o=8ee\	!
8F\	-mi-	8B-\	-mi-	.	8g\	-mi-	8ee-\L	-mi-
!	!	!	!	!	!	!	!LO:SIC:v:o=8ee\	!
8E-\	-ne	8B-\	-ne	.	8g\	-ne	8ee-\J	-ne
=26	=26	=26	=26	=26	=26	=26	=26	=26
!	!	!	!	!	!	!	!LO:SIC:v:o=4ee\	!
4B-\	De-	4B-\	De-	.	4g\	De-	4ee-	De-
4BB-/	-us	4B-\	-us	.	4f\	-us	4dd\	-us
8Bn\L	A-	4G/	a-	.	4f\	a-	4dd\	a-
8G\J	.	.	.	.	.	.	.	.
8A\L	-gnus	4G/	-gnus	.	4f\	-gnus	4dd\	-gnus
8B\J	.	.	.	.	.	.	.	.
!LO:LB:g=original	!	!	!	!	!	!	!	!
=27	=27	=27	=27	=27	=27	=27	=27	=27
4c\	De-	4G/	De-	.	4e-X\	De-	4cc\	De-
4C/	-i	4G/	-i	.	4e-\	-i	4cc\	-i
4E-X\	Fi-	4G/	Fi-	.	4g\	Fi-	4cc\	Fi-
8D\	-li-	8G/	-li-	.	8f\	-li-	8bn\	-li-
8C\	-us	8G/	-us	.	8e-\	-us	8cc\	-us
=28	=28	=28	=28	=28	=28	=28	=28	=28
8G\L	Pa-	1G	Pa-	.	2e-X\	Pa-	2cc\	Pa-
8F\	.	.	.	.	.	.	.	.
!LO:SIC:v:o=8E\	!	!	!	!	!	!	!	!
8E-\	.	.	.	.	.	.	.	.
8F\J	.	.	.	.	.	.	.	.
4G\	.	.	.	.	2d\	.	2bn\	.
4GG/	.	.	.	.	.	.	.	.
!	!	!LO:LB:g=original	!	!	!LO:LB:g=original	!	!	!
=29	=29	=29	=29	=29	=29	=29	=29	=29
2C/	-tris	2G/	-tris,	.	2e-X\	-tris,	2cc\	-tris
2C/	qui	2G/	qui	.	2en\	Qui	2cc\	qui
=30	=30	=30	=30	=30	=30	=30	=30	=30
2BB-X/	tol-	2G/	tol-	.	2e\	tol-	2cc\	tol-
2BB-/	-lis	2G/	-lis	.	2e\	-lis	2cc\	-lis
!	!	!	!	!	!	!	!LO:LB:g=original	!
=31	=31	=31	=31	=31	=31	=31	=31	=31
4r	.	4r	.	.	4r	.	4r	.
4B-\	pec-	4G/	pec-	.	4e\	pec-	4dd-X\	pec-
4B-\	-ca-	4G/	-ca-	.	4e\	-ca-	4dd-\	-ca-
4B-\	-ta	4G/	-ta	.	4e\	-ta	4dd-\	-ta
=32	=32	=32	=32	=32	=32	=32	=32	=32
4.A-X\	mun-	4.A-X\	mun-	.	4.f\	mun-	2cc\	mun-
8G\	.	8B-\	.	.	8g\	.	.	.
2F\	-di	2c\	-di	.	2a-X\	-di	2cc\	-di
=33	=33	=33	=33	=33	=33	=33	=33	=33
2F#X\	mi-	2c\	mi-	.	2an\	mi-	2ee-X\	mi-
2F#\	-se-	2c\	-se-	.	2a\	-se-	2ee-\	-se-
!LO:LB:g=original	!	!	!	!	!	!	!	!
=34	=34	=34	=34	=34	=34	=34	=34	=34
2G\	-re-	2B-\	-re-	.	2g\	-re-	2ddn\	-re-
2G\	-re	2B-\	-re	.	2g\	-re	2dd\	-re
=35	=35	=35	=35	=35	=35	=35	=35	=35
2En\	mi-	2B-\	mi-	.	2g\	mi-	2cc\	mi-
2E\	-se-	2B-\	-se-	.	2g\	-se-	2cc\	-se-
=36	=36	=36	=36	=36	=36	=36	=36	=36
4F\	-re-	4A-X\	-re-	.	4a-X\	-re-	4cc\	-re-
4G\	.	4B-\	.	.	4g\	.	4b-\	.
4A-X\	.	4c\	.	.	4f\	.	4a-X\	.
4B-\	-re	4d-X\	-re	.	4en\	-re	4g\	-re
!	!	!	!	!	!LO:LB:g=original	!	!	!
=37	=37	=37	=37	=37	=37	=37	=37	=37
2c\	no-	1c	no-	.	2f\	no-	2a-X\	no-
2C/	.	.	.	.	2e\	.	2g\	.
!	!	!LO:LB:g=original	!	!	!	!	!	!
=38	=38	=38	=38	=38	=38	=38	=38	=38
2F\	-bis,	2c\	-bis,	.	2f\	-bis	2a-X\	-bis
2F\	qui	2c\	qui	.	2f\	qui	2an\	qui
!	!	!	!	!	!	!	!LO:LB:g=original	!
=39	=39	=39	=39	=39	=39	=39	=39	=39
2E-X\	tol-	2c\	tol-	.	2g-X\	tol-	2a\	tol-
2E-\	-lis	2c\	-lis	.	2g-\	-lis	2a\	-lis
=40	=40	=40	=40	=40	=40	=40	=40	=40
4r	.	4r	.	.	4r	.	4r	.
!LO:SIC:v:o=4E\	!	!	!	!	!	!	!	!
4E-\	pec-	4c\	pec-	.	4g-X\	pec-	4a\	pec-
!LO:SIC:v:o=4E\	!	!	!	!	!	!	!	!
4E-\	-ca-	4c\	-ca-	.	4g-\	-ca-	4a\	-ca-
!LO:SIC:v:o=4E\	!	!	!	!	!	!	!	!
4E-\	-ta	4c\	-ta	.	4g-\	-ta	4a\	-ta
=41	=41	=41	=41	=41	=41	=41	=41	=41
4.D-X/	mun-	2B-\	mun-	.	4.f\	mun-	2b-\	mun-
8C/	.	.	.	.	8e-X\	.	.	.
2BB-/	-di	2F/	-di	.	2d-X\	-di	2b-\	-di
=42	=42	=42	=42	=42	=42	=42	=42	=42
4.BBn/	sus-	4.A-X\	sus-	.	4.f\	sus-	4.dd\	sus-
8BB/	-ci-	8A-\	-ci-	.	8f\	-ci-	8dd\	-ci-
!LO:LB:g=original	!	!	!	!	!	!	!	!
2BBnX/	-pe	2A-\	-pe	.	2f\	-pe	2dd\	-pe
=43	=43	=43	=43	=43	=43	=43	=43	=43
4C/	sus-	2G/	sus-	.	2e\	sus-	4.cc\	sus-
4G\	.	.	.	.	.	.	.	.
.	.	.	.	.	.	.	8cc\	-ci-
4E\	-ci-	4G/	-ci-	.	4e\	-ci-	2cc\	-pe
4C/	-pe	4G/	-pe	.	4e\	-pe	.	.
=44	=44	=44	=44	=44	=44	=44	=44	=44
2A-X\	de-	2Bn\	de-	.	2f\	de-	2dd\	de-
2G\	-pre-	2c\	-pre-	.	2e\	-pre-	2cc\	-pre-
!	!	!	!	!	!LO:LB:g=original	!	!	!
=45	=45	=45	=45	=45	=45	=45	=45	=45
2F\	-ca-	2d\	-ca-	.	2a-X\	-ca-	2bn\	-ca-
2E-X\	-ti-	2c\	-ti-	.	2g\	-ti-	2cc\	-ti-
=46	=46	=46	=46	=46	=46	=46	=46	=46
2D\	-o-	2G/	-o-	.	2f\	-o-	2bn\	-o-
4C/	.	2G/	-nem	.	2e-X\	-nem	2cc\	-nem
!LO:SIC:v:o=4E\	!	!	!	!	!	!	!	!
4E-\	-nem	.	.	.	.	.	.	.
!	!	!LO:LB:g=original	!	!	!	!	!LO:LB:g=original	!
=47	=47	=47	=47	=47	=47	=47	=47	=47
!	!	!	!	!	!LO:SIC:v:o=2e\	!	!	!
2G\	no-	1G	no-	.	2e-\	no-	2cc\	no-
2GG/	.	.	.	.	2d\	.	2bn\	.
=48	=48	=48	=48	=48	=48	=48	=48	=48
2C/	-stram	2G/	-stram	.	2e-X\	-stram,	2cc\	-stram
2C#X/	qui	2G/	qui	.	2en\	qui	2b-X\	qui
=49	=49	=49	=49	=49	=49	=49	=49	=49
2C#X/	se-	2G/	[[tol-	se-	2e\	se-	2b-\	se-
2C#/	-des	2G/	-lis]]	-des	2e\	-des	2b-\	-des
=50	=50	=50	=50	=50	=50	=50	=50	=50
4r	.	4r	.	.	4r	.	4r	.
4C#X/	ad	4G/	ad	.	4e\	ad	4b-\	ad
4C#/	dex-	4G/	dex-	.	4e\	dex-	4b-\	dex-
8C#/	-te-	8G/	-te-	.	8e\	-te-	8b-\	-te-
8C#/	-ram	8G/	-ram	.	8e\	-ram	8b-\	-ram
!LO:LB:g=original	!	!	!	!	!	!	!	!
=51	=51	=51	=51	=51	=51	=51	=51	=51
4.D\	Pa-	4.F/	Pa-	.	4.f\	Pa-	4.a\	Pa-
8E\	.	8E/	.	.	8g\	.	8cc#X\	-tris,
2F\	-tris	2D/	-tris	.	2an\	-tris	2dd\	mi-
=52	=52	=52	=52	=52	=52	=52	=52	=52
2D\	mi-	2d\	mi-	.	2a\	mi-	2ff\	.
2d\	-se-	2d\	-se-	.	2a\	-se-	2ff\	-se-
=53	=53	=53	=53	=53	=53	=53	=53	=53
1B-X	-re-	1c#X	-re-	.	1g	-re-	1ee	-re-
!	!	!	!	!	!LO:LB:g=original	!	!	!
=54	=54	=54	=54	=54	=54	=54	=54	=54
1G	-re	1B-X	-re	.	1en	-re	1cc#X	.
=55	=55	=55	=55	=55	=55	=55	=55	=55
1G#X	no-	1Bn	no-	.	1e	no-	1dd	-re
!	!	!	!	!	!	!	!LO:LB:g=original	!
=56	=56	=56	=56	=56	=56	=56	=56	=56
1A	.	1A	.	.	2e\	.	2cc#X\	no-
.	.	.	.	.	2f\	-bis	2dd\	.
=57	=57	=57	=57	=57	=57	=57	=57	=57
1AA	.	1A	.	.	2f\	no-	2dd\	.
.	.	.	.	.	2e\	.	2cc#X\	.
=58	=58	=58	=58	=58	=58	=58	=58	=58
2D\	-bis	2A\	-bis	.	2f\	-bis,	2dd\	-bis,
2r	.	2r	.	.	2r	.	2r	.
!	!	!LO:LB:g=original	!	!	!	!	!	!
=59	=59	=59	=59	=59	=59	=59	=59	=59
4D\	Quo-	4d\	Quo-	.	4a\	Quo-	4ff\	Quo-
4E\	-ni-	4c#X\	-ni-	.	4g\	-ni-	4ee\	-ni-
4F\	-am	4A\	-am	.	8f\L	-am	8dd\L	-am
.	.	.	.	.	8a\	.	8ff\J	.
4D\	tu	4A\	tu	.	8g\	tu	8ee\L	tu
.	.	.	.	.	8f\J	.	8dd\J	.
=60	=60	=60	=60	=60	=60	=60	=60	=60
4AA/	so-	4A\	so-	.	4e\	so-	4cc#X\	so-
4D\	-lus	4A\	-lus	.	4f\	-lus	4dd\	-lus
4A\	san-	4d\	san-	.	8a\L	san-	8ff\L	san-
.	.	.	.	.	8g\	.	8ee\	.
4AA/	.	4c#X\	.	.	8f\	.	8dd\	.
.	.	.	.	.	8e\J	.	8cc#\J	.
=61	=61	=61	=61	=61	=61	=61	=61	=61
4D\	-ctus	4A\	-ctus	.	4f\	-ctus	4dd\	-ctus
4G#X\	tu	4Bn\	tu	.	4f\	tu	4dd\	tu
!LO:LB:g=original	!	!	!	!	!	!	!	!
4A\	so-	4A\	so-	.	4e\	so-	4cc#X\	so-
4G#\	-lus	4B\	-lus	.	4f\	-lus	4dd\	-lus
!	!	!	!	!	!LO:LB:g=original	!	!LO:LB:g=original	!
=62	=62	=62	=62	=62	=62	=62	=62	=62
4A\	Do-	4A\	Do-	.	4e\	Do-	4cc#X\	Do-
4G#X\	-mi-	4Bn\	-mi-	.	4f\	-mi-	4dd\	-mi-
4A\	-nus	4A\	-nus	.	4e\	-nus	4cc#\	-nus
4r	.	4r	.	.	4r	.	4r	.
=63	=63	=63	=63	=63	=63	=63	=63	=63
4r	.	4r	.	.	4r	.	4r	.
4Gn\	tu	4B-X\	tu	.	4e\	tu	4cc#X\	tu
4G\	so-	4B-\	so-	.	4e\	so-	4cc#\	so-
8G\	-lus	8B-\	-lus	.	8e\	-lus	8cc#\	-lus
8G\	al-	8B-\	al-	.	8e\	al-	8cc#\	al-
=64	=64	=64	=64	=64	=64	=64	=64	=64
4.F\	-tis-	4.A/	-tis-	.	4.f\	-tis-	4.dd\	-tis-
8E\	-si-	8G/	-si-	.	8g\	-si-	8ee\	-si-
2D\	-mus	2F/	-mus	.	2a\	-mus	2ff\	-mus
!	!	!LO:LB:g=original	!	!	!	!	!	!
=65	=65	=65	=65	=65	=65	=65	=65	=65
4G\	Je-	4B-\	Je-	.	4g\	Je-	4ee\	Je-
4E\	-su	4G\	-su	.	4g\	-su	4ee\	-su
4A\	Chri-	2A\	Chri-	.	4f\	Chri-	4dd\	Chri-
4AA/	.	.	.	.	4e\	.	4cc#X\	.
=66	=66	=66	=66	=66	=66	=66	=66	=66
2D\	-ste	2A/	-ste,	.	2f\	-ste	2dd\	-ste
2AA/	Cum	2G/	Cum	.	2e\	Cum	2cc#X\	Cum
=67||	=67||	=67||	=67||	=67||	=67||	=67||	=67||	=67||
*k[f#c#]	*	*k[f#c#]	*	*	*k[f#c#]	*	*yyk[f#c#]	*
*D:	*	*D:	*	*	*D:	*	*D:	*
!	!	!	!	!	!	!	!LO:TX:t=P:problem:brak zmiany tonacji	!
2D\	san-	2F#/	san-	.	2f#\	san-	2dd\	san-
2F#\	-cto	2A\	-cto	.	2f#\	-cto,	2dd\	-cto
!LO:LB:g=original	!	!	!	!	!	!	!LO:PB:g=original	!
=68	=68	=68	=68	=68	=68	=68	=68	=68
*k[f#c#]	*	*	*	*	*	*	*k[f#c#]	*
!	!	!	!	!	!	!	!LO:TX:t=P:problem:tu zmiana tonacji [f# c#]	!
4r	.	4r	.	.	4r	.	4r	.
4D\	cum	4A\	Cum	.	4a\	cum	4ff#\	Cum
!	!	!	!	!	!LO:LB:g=original	!	!	!
*	*	*	*	*	*k[f#c#]	*	*	*
4F#\	san-	4A\	san-	.	4f#\	san-	4dd\	san-
4D\	-cto	4A\	-cto	.	4a\	-cto	4ff#\	-cto
=69	=69	=69	=69	=69	=69	=69	=69	=69
4.A\	spi-	4.c#X\	spi-	.	4.g\	spi-	4.ee\	spi-
8AA/	-ri-	8c#\	-ri-	.	8g\	-ri-	8ee\	-ri-
4AA/	-tu	4c#\	-tu	.	4g\	-tu	4ee\	-tu
4AA/	in	4c#\	in	.	4g\	in	4ee\	in
=70	=70	=70	=70	=70	=70	=70	=70	=70
4D\	glo-	4A\	glo-	.	4f#\	glo-	4dd\	glo-
8F#\L	-ri-	8A\	-ri-	.	8f#\	-ri-	8dd\	-ri-
!	!	!	!	!	!	!	!LO:SIC:v:o=8cc#X\	!
8E\J	-a	8A\	-a	.	8f#\	-a	8ddJ\	-a
!	!	!	!	!	!	!	!LO:SIC:v:o=4dd\	!
8D\L	De-	4A\	De-	.	4g\	De-	4ee\	De-
8E\J	.	.	.	.	.	.	.	.
8F#\L	-i	4A\	-i	.	4f#\	-i	4dd\	-i
8G\J	.	.	.	.	.	.	.	.
=71	=71	=71	=71	=71	=71	=71	=71	=71
!	!	!	!	!	!	!	!LO:SIC:v:o=4cc#X\	!
4A\	Pa-	4A\	Pa-	.	4f#\	Pa-	4dd\	Pa-
4AA/	-tris	4A\	-tris	.	4e\	-tris	4cc#\	-tris
2r	.	2r	.	.	2r	.	2r	.
!	!	!LO:LB:g=original	!	!	!	!	!	!
=72	=72	=72	=72	=72	=72	=72	=72	=72
*	*	*k[f#c#]	*	*	*	*	*	*
2B\	A-	2d\	A-	.	2g\	A-	2dd\	A-
2A\	-men	2d\	-men	.	2f#\	-men	2dd\	-men
=73	=73	=73	=73	=73	=73	=73	=73	=73
2G\	a-	2A\	a-	.	2e\	a-	2cc#X\	a-
2F#\	-men	2A\	-men	.	2d\	-men	2dd\	-men
!	!	!	!	!	!	!	!LO:LB:g=original	!
=74	=74	=74	=74	=74	=74	=74	=74	=74
!LO:SIC:v:o=4D\	!	!	!	!	!	!	!	!
4E\	a-	1A	a-	.	1e	a-	2dd\	a-
!LO:SIC:v:o=4F#\	!	!	!	!	!	!	!	!
4G\	.	.	.	.	.	.	.	.
4A\	.	.	.	.	.	.	2cc#X\	.
4AA/	.	.	.	.	.	.	.	.
!LO:LB:g=original	!	!	!	!	!	!	!	!
=75	=75	=75	=75	=75	=75	=75	=75	=75
2D\	-men	2A\	-men	.	2f#\	-men	2dd\	-men
2r	.	2r	.	.	2r	.	2r	.
!	!	!	!	!	!LO:LB:g=original	!	!	!
=76	=76	=76	=76	=76	=76	=76	=76	=76
2G\	a-	2B\	a-	.	2e\	a-	2cc#X\	a-
2F#\	-men	2A\	.	.	2f#\	-men	2dd\	-men
=77	=77	=77	=77	=77	=77	=77	=77	=77
4E\	a-	2A\	-men	.	2g\	a-	2cc#\	a-
4AA/	.	.	.	.	.	.	.	.
2D\	-men	2A\	a-	.	2f#\	-men	2dd\	-men
=78	=78	=78	=78	=78	=78	=78	=78	=78
4G\	a-	2B\	.	.	2g\	a-	2ee\	a-
4E\	.	.	.	.	.	.	.	.
4A\	.	2A\	.	.	2e\	.	2cc#\	.
4AA/	.	.	.	.	.	.	.	.
=79	=79	=79	=79	=79	=79	=79	=79	=79
2D\	-men.	1A	-men.	.	2f#\	-men.	2.dd\	-men.
2r	.	.	.	.	2r	.	.	.
.	.	.	.	.	.	.	4r	.
==	==	==	==	==	==	==	==	==
*-	*-	*-	*-	*-	*-	*-	*-	*-
!!!system-decoration: [(s1,s2,s3,s4)]
!!!ENC: Anastazja Marusiak
!!!END: 2023-11-09
!!!EED: Jan Barakat
!!!EEV: 2023-12-02
!!!YEM: Copyright © 2023 by [Copyright Holder]
